2 Export/Icons/Rounded/Visibility.svg

<svg xmlns="http://www.w3.org/2000/svg" xmlns:xlink="http://www.w3.org/1999/xlink" width="24" height="24" viewBox="0 0 24 24">
  <defs>
    <path id="visibility-a" d="M12 4C7 4 2.73 7.11 1 11.5 2.73 15.89 7 19 12 19s9.27-3.11 11-7.5C21.27 7.11 17 4 12 4zm0 12.5c-2.76 0-5-2.24-5-5s2.24-5 5-5 5 2.24 5 5-2.24 5-5 5zm0-8c-1.66 0-3 1.34-3 3s1.34 3 3 3 3-1.34 3-3-1.34-3-3-3z"/>
  </defs>
  <g fill="none" fill-rule="evenodd">
    <polygon points="0 0 24 0 24 24 0 24"/>
    <mask id="visibility-b" fill="#fff">
      <use xlink:href="#visibility-a"/>
    </mask>
    <use fill="#000" xlink:href="#visibility-a"/>
    <g fill="#000" mask="url(#visibility-b)">
      <rect width="24" height="24"/>
    </g>
  </g>
</svg>

<svg xmlns="http://www.w3.org/2000/svg" xmlns:xlink="http://www.w3.org/1999/xlink" width="24" height="24" viewBox="0 0 24 24">
  <defs>
    <path id="visibility-a" d="M12,4 C7,4 2.73,7.11 1,11.5 C2.73,15.89 7,19 12,19 C17,19 21.27,15.89 23,11.5 C21.27,7.11 17,4 12,4 Z M12,16.5 C9.24,16.5 7,14.26 7,11.5 C7,8.74 9.24,6.5 12,6.5 C14.76,6.5 17,8.74 17,11.5 C17,14.26 14.76,16.5 12,16.5 Z M12,8.5 C10.34,8.5 9,9.84 9,11.5 C9,13.16 10.34,14.5 12,14.5 C13.66,14.5 15,13.16 15,11.5 C15,9.84 13.66,8.5 12,8.5 Z"/>
  </defs>
  <g fill="none" fill-rule="evenodd">
    <polygon points="0 0 24 0 24 24 0 24"/>
    <mask id="visibility-b" fill="#fff">
      <use xlink:href="#visibility-a"/>
    </mask>
    <use fill="#000" xlink:href="#visibility-a"/>
    <g fill="#000" mask="url(#visibility-b)">
      <rect width="24" height="24"/>
    </g>
  </g>
</svg>
